build/images/icons/arrow-more.svg

<svg width="36" height="13" viewBox="0 0 36 13" fill="none" xmlns="http://www.w3.org/2000/svg">
<path d="M0 7.96396V5.05029H32.3741V7.96396H0Z" fill="#11172F"/>
<path d="M35.9352 7.88633L25.4719 12.7942L25.5885 9.50504L31.9208 6.73381V6.59137L25.7957 3.37986L25.8993 0L36 5.81439L35.9352 7.88633Z" fill="#11172F"/>
</svg>

<svg width="36" height="13" fill="none" xmlns="http://www.w3.org/2000/svg"><path d="M0 7.964V5.05h32.374v2.914H0z" fill="#11172F"/><path d="M35.935 7.886l-10.463 4.908.116-3.289 6.333-2.771V6.59l-6.125-3.21.103-3.38L36 5.814l-.065 2.072z" fill="#11172F"/></svg>
